X:121
T:Pipe on the Hob
Z: id:dc-jig-101
M:6/8
L:1/8
K:A Dorian
B|c3 edc|edc BAG|ABA g3|eaf ged|!
c3 edc|edc deg|age dBe|ABA A2:|!
f|g3 gea|age dBe|ABA g3|eaf gef|!
g3 gea|age efg|age dBe|ABA A2:|!
B|cBc dcd|ecA AGE|cBc dcd|ecA A2B|!
cBc dcd|ede gab|age dBe|ABA A2:|!

